/* XPM */
static const char *icon_xpm[] = {
"32 32 6 2 ",
"   c None",
"ab c #6AAA3E",
"ac c #4A8028",
"ad c #3C6922",
"ae c #866043",
"af c #694A34",
"                        abababababababab                        ",
"                        abababababababab                        ",
"                abababababababababababababababab                ",
"                abababababababababababababababab                ",
"        abababababababababababababababababababababababab        ",
"        abababababababababababababababababababababababab        ",
"abababababababababababababababababababababababababababababababab",
"abababababababababababababababababababababababababababababababab",
"acacababababababababababababababababababababababababababababadad",
"acacababababababababababababababababababababababababababababadad",
"acacacacacacababababababababababababababababababababadadadadadad",
"acacacacacacababababababababababababababababababababadadadadadad",
"acacacacacacacacacacababababababababababababadadadadadadadadadad",
"acacacacacacacacacacababababababababababababadadadadadadadadadad",
"aeaeacacacacacacacacacacacacababababadadadadadadadadadadadadafaf",
"aeaeacacacacacacacacacacacacababababadadadadadadadadadadadadafaf",
"aeaeaeaeacacaeaeacacacacacacacacadadadadadadadadafafadadafafafaf",
"aeaeaeaeacacaeaeacacacacacacacacadadadadadadadadafafadadafafafaf",
"aeaeaeaeaeaeaeaeaeaeacacacacacacadadadadadadafafafafafafafafafaf",
"aeaeaeaeaeaeaeaeaeaeacacacacacacadadadadadadafafafafafafafafafaf",
"aeaeaeaeaeaeaeaeaeaeaeaeacacacacadadadadafafafafafafafafafafafaf",
"aeaeaeaeaeaeaeaeaeaeaeaeacacacacadadadadafafafafafafafafafafafaf",
"aeaeaeaeaeaeaeaeaeaeaeaeaeaeacacadadafafafafafafafafafafafafafaf",
"aeaeaeaeaeaeaeaeaeaeaeaeaeaeacacadadafafafafafafafafafafafafafaf",
"        aeaeaeaeaeaeaeaeaeaeacacadadafafafafafafafafafaf        ",
"        aeaeaeaeaeaeaeaeaeaeacacadadafafafafafafafafafaf        ",
"                aeaeaeaeaeaeaeaeafafafafafafafaf                ",
"                aeaeaeaeaeaeaeaeafafafafafafafaf                ",
"                        aeaeaeaeafafafaf                        ",
"                        aeaeaeaeafafafaf                        ",
"                                                                ",
"                                                                "
};
